X:1     %Music
T:On Christmas Night [Sussex Carol]
B:Singing Together, Autumn 1965, BBC Publications
F:http://www.folkinfo.org/songs
M:6/4     %Meter
L:1/8     %
K:G
d2 |:d4 B2 c4 d2 |(B2A2) G2 A4 F2 |G4 G2 (A2B2) c2 |[1
w:On Christ-mas night all Christ--ians sing, To hear the news_ the 
B4 A2 G4 d2 :|[2B4 A2 G6 |A6 A4 G2 |(A2B2) c2 (d2c2) B2 |
w:an-gels bring On an-gels bring. News of great joy_ News of_ great 
A12 |[M:9/4][L:1/8] d6 e6 d6 |[M:6/4][L:1/8] c4 B2 (A2G2) A2 |G6-G4 |]
w:mirth. News of our mer-ci-ful_ King's birth._ 